symbols/web/camera_roll/materialsymbolsoutlined/camera_roll_grad200_24px.svg

<svg xmlns="http://www.w3.org/2000/svg" height="24" width="24"><path d="M22.8 20.8h-8.225q-.2.9-.925 1.475-.725.575-1.65.575H3.85q-1.125 0-1.887-.763Q1.2 21.325 1.2 20.2V4.9q0-1.125.763-1.888.762-.762 1.887-.762h.4V1.3q0-.45.325-.775T5.35.2h5.15q.45 0 .775.325t.325.775v.95h.4q.925 0 1.65.575.725.575.925 1.475H22.8Zm-2.65-2.65V6.95H12V4.9H8.95V2.85H6.9V4.9H3.85v15.3H12v-2.05ZM9 17.15h2.3v-2.3H9Zm0-6.9h2.3v-2.3H9Zm3.95 6.9h2.3v-2.3h-2.3Zm0-6.9h2.3v-2.3h-2.3Zm3.9 6.9h2.3v-2.3h-2.3Zm0-6.9h2.3v-2.3h-2.3ZM12 11.525Z"/></svg>

<svg xmlns="http://www.w3.org/2000/svg" height="24" width="24"><path d="M22.8 20.8H14.575Q14.375 21.7 13.65 22.275Q12.925 22.85 12 22.85H3.85Q2.725 22.85 1.963 22.087Q1.2 21.325 1.2 20.2V4.9Q1.2 3.775 1.963 3.012Q2.725 2.25 3.85 2.25H4.25V1.3Q4.25 0.85 4.575 0.525Q4.9 0.2 5.35 0.2H10.5Q10.95 0.2 11.275 0.525Q11.6 0.85 11.6 1.3V2.25H12Q12.925 2.25 13.65 2.825Q14.375 3.4 14.575 4.3H22.8ZM20.15 18.15V6.95H12V4.9Q12 4.9 12 4.9Q12 4.9 12 4.9H8.95V2.85H6.9V4.9H3.85Q3.85 4.9 3.85 4.9Q3.85 4.9 3.85 4.9V20.2Q3.85 20.2 3.85 20.2Q3.85 20.2 3.85 20.2H12Q12 20.2 12 20.2Q12 20.2 12 20.2V18.15ZM9 17.15H11.3V14.85H9ZM9 10.25H11.3V7.95H9ZM12.95 17.15H15.25V14.85H12.95ZM12.95 10.25H15.25V7.95H12.95ZM16.85 17.15H19.15V14.85H16.85ZM16.85 10.25H19.15V7.95H16.85ZM12 11.525Q12 11.525 12 11.525Q12 11.525 12 11.525Q12 11.525 12 11.525Q12 11.525 12 11.525Q12 11.525 12 11.525Q12 11.525 12 11.525Q12 11.525 12 11.525Q12 11.525 12 11.525Z"/></svg>
